!!!OTL: ACH WIE BALD SCHWINDET SCHOENHEIT
!!!ARE: Europa, Mitteleuropa, Deutschland, Schwaben
!!!SCT: E0719
!!!YEM: Copyright 1995, estate of Helmut Schaffrath.
**kern
*ICvox
*Ivox
*M3/4
*k[f#]
*G:
{8.d
16b
=1
4b
4g
8.d
16cc
=2
4cc
4a}
{8.g
16b
=3
4dd
8b
8dd
8.cc
16a
=4
4a
4g
4r}
=5
{8.g
16b
8b
8b
8b
8b
=6
8dd
8cc
4a
4r}
=7
{8.a
16cc
8cc
8cc
8cc
8cc
=8
8ee
8dd
4b}
{8.g
16b
=9
4dd
8b
8dd
8.cc
16a
=10
4a
4g}
==
!!!AGN: Liebes - Lied, Leid, Klage
!!!ONB: ESAC (Essen Associative Code) Database: ERK2
!!!AMT: simple triple
!!!AIN: vox
!!!EED: Helmut Schaffrath
!!!EEV: 1.0
*-
